X:1
T:The Tailor and the Louse
M:2/4
L:1/8
K:D
 D| D3/2 F/2 A3/2 A/2| =cB G2| d2 e3/2 e/2| d3/2- =c/2 A| B| =c3/2 B/2c/2 A A/2|\
 G3/2- F/2 D2| E3/2 F/2 G3/2 E/2| D3/2 D||

